X:454
T:L Horae’s [?] Welcome to L’d RH.455
R:air
S:Rev.R.Harrison’s MS,c1815,Cumbria
N:I have left in the superfluous d2 at the start. PJH.
O:England
A:Temple Sowerby,Cumbria
Z:vmp.Simon Wilson. Review PJH, 2008.
M:C
L:1/8
Q:2/4=50
K:G
d2|g>g a>g b<d’d’2|c’>ab>g a>gf>d|\
g>g a>g b<d’d’2|eg f/g/a/f/ g/a/b/a/g2:|!
|:g<gb<g a>gf>d|e<eg<e d>c BG|\
g<gb<g a>gf>d|eg (f/g/a/f/) (g/a/b/a/)g2:|!
|:c’>ab>g a>fg>d|e/d/c/B/ g>G c/B/A/G/ F>d|\
G>GG>G c<ee2|d>g (f/g/a/f/) (g/a/b/a/)g2:|

